assets/Pregnant woman/Default/Flat/pregnant_woman_flat_default.svg

<svg width="32" height="32" viewBox="0 0 32 32" fill="none" xmlns="http://www.w3.org/2000/svg">
<path d="M24.0208 10.6035C24.2003 10.2247 24.3 9.80598 24.3 9.36733C24.3 8.78911 24.1205 8.2408 23.8215 7.79218C23.5224 7.33359 23.3629 6.80521 23.3629 6.2569V6.24693C23.3629 4.67178 22.0868 3.39571 20.5116 3.39571C20.3521 3.39571 20.2126 3.32592 20.1228 3.19632C19.6044 2.46856 18.757 2 17.8 2C16.8429 2 15.9955 2.46856 15.4771 3.19632C15.3874 3.31595 15.2379 3.39571 15.0883 3.39571C13.5132 3.39571 12.2371 4.67178 12.2371 6.24693V6.2569C12.2371 6.80521 12.0776 7.33359 11.7785 7.79218C11.4794 8.2408 11.3 8.78911 11.3 9.36733C11.3 9.80598 11.3997 10.2247 11.5791 10.6035C11.6389 10.7331 11.6389 10.8727 11.5791 11.0023C11.3997 11.3712 11.3 11.7799 11.3 12.2186C11.3 13.7538 12.5462 15 14.0814 15H21.5086C23.0439 15 24.29 13.7538 24.29 12.2186C24.29 11.7799 24.1903 11.3712 24.0109 11.0023C23.961 10.8727 23.961 10.7232 24.0208 10.6035Z" fill="#F1A11E"/>
<path d="M22 16.0088C22 14.2838 20.34 13 18.5694 13H15.9135L12.4829 16.6708C12.1509 17.0218 11.9497 17.4932 11.9497 18.0147C11.9497 18.5162 12.1408 18.9776 12.4427 19.3186C12.5332 19.4189 12.4728 19.5894 12.3421 19.6094C9.31388 20.1209 7 22.7487 7 25.918V26.4897C7 28.4254 8.57948 30 10.5211 30H20.2495C21.2153 30 22 29.2177 22 28.2549V19.9805V16.0088Z" fill="#8B62BF"/>
<path d="M15.5 9.5C15.5 10.3284 14.8284 11 14 11C13.1716 11 12.5 10.3284 12.5 9.5C12.5 8.67157 13.1716 8 14 8C14.8284 8 15.5 8.67157 15.5 9.5Z" fill="#FDBB11"/>
<path d="M23.5 9.5C23.5 10.3284 22.8284 11 22 11C21.1716 11 20.5 10.3284 20.5 9.5C20.5 8.67157 21.1716 8 22 8C22.8284 8 23.5 8.67157 23.5 9.5Z" fill="#FDBB11"/>
<path d="M21.4102 6.54388H18.6471C17.5558 6.54388 16.5247 6.00141 15.914 5.09731C15.8138 4.94662 15.5836 4.97676 15.5135 5.14754L15.4434 5.29822C15.2432 5.78041 14.8429 6.08166 14.4223 6.36305C13.9419 6.68435 13.6491 7.01116 13.6414 7.64889L13.7515 10.4114C13.8516 12.8525 15.7337 14.5 18.0164 14.5C20.299 14.5 22.1811 12.8626 22.2812 10.4114L22.3914 7.78953C22.3713 6.62424 21.5704 6.54388 21.4102 6.54388Z" fill="#FFC83D"/>
<path d="M20.2912 8.25C19.8012 8.25 19.4012 8.59 19.1512 8.97C19.405 9.05035 19.6498 9.12175 19.8924 9.19254C20.2236 9.28914 20.5507 9.38458 20.8912 9.5L21.3112 9.11C21.4812 8.96 21.4712 8.68 21.2812 8.55C21.0012 8.36 20.6412 8.25 20.2912 8.25Z" fill="black"/>
<path d="M15.7513 8.26074C16.2413 8.26074 16.6413 8.59074 16.8913 8.97074C16.6375 9.05109 16.3927 9.12249 16.1501 9.19328C15.8189 9.28988 15.4918 9.38532 15.1513 9.50074L14.7413 9.13074C14.5613 8.97074 14.5813 8.70074 14.7613 8.56074C15.0413 8.37074 15.4013 8.26074 15.7513 8.26074Z" fill="black"/>
<path d="M14.7413 9.25984C14.8713 8.72984 15.3413 8.33984 15.9113 8.33984C16.4913 8.33984 16.9813 8.75984 17.1013 9.31984C17.1213 9.43984 17.0213 9.54984 16.9013 9.54984H14.9613C14.8113 9.54984 14.6913 9.40984 14.7413 9.25984Z" fill="white"/>
<path d="M21.3113 9.25984C21.1813 8.72984 20.7113 8.33984 20.1413 8.33984C19.5513 8.33984 19.0613 8.75984 18.9513 9.31984C18.9313 9.43984 19.0313 9.54984 19.1513 9.54984H21.0813C21.2313 9.54984 21.3513 9.40984 21.3113 9.25984Z" fill="white"/>
<path d="M15.3113 9.34031C15.3113 8.92031 15.6513 8.57031 16.0813 8.57031C16.5113 8.57031 16.8613 8.92031 16.8613 9.34031C16.8613 9.42031 16.8513 9.48031 16.8313 9.55031H15.3413C15.3213 9.48031 15.3113 9.41031 15.3113 9.34031Z" fill="#7D4533"/>
<path d="M20.7313 9.34031C20.7313 8.92031 20.3913 8.57031 19.9613 8.57031C19.5313 8.57031 19.1813 8.92031 19.1813 9.34031C19.1813 9.42031 19.1913 9.48031 19.2113 9.55031H20.7013C20.7213 9.48031 20.7313 9.41031 20.7313 9.34031Z" fill="#7D4533"/>
<path d="M16.0912 8.90039C16.3312 8.90039 16.5312 9.10039 16.5312 9.34039C16.5312 9.41039 16.5112 9.48039 16.4812 9.55039H15.7012C15.6712 9.48039 15.6512 9.41039 15.6512 9.34039C15.6512 9.10039 15.8512 8.90039 16.0912 8.90039Z" fill="black"/>
<path d="M19.9612 8.90039C19.7212 8.90039 19.5212 9.10039 19.5212 9.34039C19.5212 9.41039 19.5312 9.48039 19.5712 9.55039H20.3512C20.3812 9.48039 20.4012 9.41039 20.4012 9.34039C20.4012 9.10039 20.2012 8.90039 19.9612 8.90039Z" fill="black"/>
<path d="M15.9613 9.04039C15.9613 9.11771 15.8986 9.18039 15.8213 9.18039C15.744 9.18039 15.6813 9.11771 15.6813 9.04039C15.6813 8.96307 15.744 8.90039 15.8213 8.90039C15.8986 8.90039 15.9613 8.96307 15.9613 9.04039Z" fill="white"/>
<path d="M19.8413 9.04039C19.8413 9.11771 19.7786 9.18039 19.7013 9.18039C19.624 9.18039 19.5613 9.11771 19.5613 9.04039C19.5613 8.96307 19.624 8.90039 19.7013 8.90039C19.7786 8.90039 19.8413 8.96307 19.8413 9.04039Z" fill="white"/>
<path d="M18.0113 11.9603C17.5613 11.9603 17.1413 11.8503 16.7813 11.6603C16.6613 11.6003 16.5313 11.7403 16.6013 11.8603C16.9013 12.3203 17.4213 12.6303 18.0113 12.6303C18.6013 12.6303 19.1213 12.3303 19.4213 11.8603C19.4913 11.7403 19.3713 11.6103 19.2413 11.6703C18.8813 11.8503 18.4613 11.9603 18.0113 11.9603Z" fill="#990839"/>
<path d="M17.676 9.15125L17.2506 10.576C17.1636 10.867 17.3763 11.168 17.6664 11.168H18.2948C18.5946 11.168 18.7976 10.867 18.7106 10.576L18.2852 9.15125C18.1982 8.84021 17.7727 8.84021 17.676 9.15125Z" fill="#ED9200"/>
<path d="M20.9612 7.78033C21.0012 7.80033 21.0412 7.81033 21.0812 7.81033C21.1612 7.81033 21.2412 7.77033 21.2912 7.69033C21.3512 7.58033 21.3112 7.43033 21.2012 7.37033C21.1987 7.36949 21.1911 7.36568 21.1787 7.3595C21.0443 7.29221 20.3481 6.94378 19.5512 7.09033C19.4212 7.11033 19.3412 7.23033 19.3612 7.36033C19.3812 7.49033 19.5112 7.57033 19.6312 7.55033C20.2571 7.43241 20.8336 7.71765 20.9428 7.77168C20.954 7.77722 20.9603 7.78033 20.9612 7.78033Z" fill="#D37034"/>
<path d="M14.7412 7.69072C14.7812 7.77072 14.8612 7.81072 14.9412 7.81072C14.9812 7.81072 15.0212 7.81072 15.0612 7.78072C15.0612 7.78072 15.6912 7.42072 16.3912 7.55072C16.5112 7.58072 16.6412 7.49072 16.6612 7.37072C16.6812 7.24072 16.6012 7.12072 16.4712 7.10072C15.6012 6.94072 14.8512 7.36072 14.8212 7.38072C14.7112 7.44072 14.6712 7.59072 14.7412 7.69072Z" fill="#D37034"/>
<path d="M18.1552 20.01C17.7658 21.2725 17.0568 22.7555 15.7587 23.8778C14.161 25.2705 12.094 25.9519 10.8557 26.2625C10.5761 26.3327 10.2866 26.2525 10.0869 26.0521L9.54763 25.511C9.298 25.2605 8.8786 25.2605 8.62896 25.511C8.37932 25.7615 8.37932 26.1824 8.62896 26.4329L8.92853 26.7335H7.67035C7.33084 26.7335 7.03127 26.994 7.00131 27.3347C6.98134 27.6653 7.19104 27.9459 7.49061 28.016C7.35081 28.1363 7.26094 28.3166 7.26094 28.517C7.26094 28.8076 7.45066 29.0581 7.71029 29.1383C7.67035 29.2485 7.66036 29.3788 7.69032 29.509C7.76022 29.7996 8.03981 30 8.34937 30H9.38787C9.43779 30 9.99698 30 10.2366 29.9599C10.4164 29.9299 14.7701 29.3387 18.0354 26.503C20.3021 24.5291 21.3106 21.9339 21.75 20H18.1552V20.01Z" fill="#FFC83D"/>
<path d="M20.2436 15.6201C19.269 15.6201 18.4772 16.3901 18.4772 17.3501C18.4772 17.3701 18.5568 18.5601 18.1 20.0201H21.75C22.0952 18.5401 21.9999 17.4601 21.9999 17.3601C22.0101 16.4101 21.2182 15.6201 20.2436 15.6201Z" fill="#774AA6"/>
</svg>

<svg xmlns="http://www.w3.org/2000/svg" width="32" height="32" fill="none"><path fill="#F1A11E" d="M24.02 10.604a2.85 2.85 0 0 0-.2-2.811 2.8 2.8 0 0 1-.457-1.536v-.01a2.85 2.85 0 0 0-2.851-2.851.46.46 0 0 1-.39-.2A2.842 2.842 0 0 0 17.8 2c-.957 0-1.805.469-2.323 1.196a.5.5 0 0 1-.389.2 2.85 2.85 0 0 0-2.85 2.85v.01a2.8 2.8 0 0 1-.46 1.536 2.85 2.85 0 0 0-.199 2.812c.06.13.06.269 0 .398A2.783 2.783 0 0 0 14.081 15h7.428a2.783 2.783 0 0 0 2.502-3.998.503.503 0 0 1 .01-.399Z"/><path fill="#8B62BF" d="M22 16.009C22 14.284 20.34 13 18.57 13h-2.656l-3.431 3.67a1.945 1.945 0 0 0-.533 1.345c0 .501.19.963.493 1.304.09.1.03.27-.1.29C9.312 20.121 7 22.75 7 25.918v.572A3.52 3.52 0 0 0 10.521 30h9.729A1.75 1.75 0 0 0 22 28.255V16.009Z"/><path fill="#FDBB11" d="M15.5 9.5a1.5 1.5 0 1 1-3 0 1.5 1.5 0 0 1 3 0ZM23.5 9.5a1.5 1.5 0 1 1-3 0 1.5 1.5 0 0 1 3 0Z"/><path fill="#FFC83D" d="M21.41 6.544h-2.763a3.305 3.305 0 0 1-2.733-1.447c-.1-.15-.33-.12-.4.05l-.07.151c-.2.482-.601.784-1.022 1.065-.48.321-.773.648-.78 1.286l.11 2.762c.1 2.441 1.982 4.089 4.264 4.089 2.283 0 4.165-1.637 4.265-4.089l.11-2.621c-.02-1.166-.82-1.246-.98-1.246Z"/><path fill="#000" d="M20.291 8.25c-.49 0-.89.34-1.14.72.254.08.499.152.741.223.332.096.659.192 1 .307l.42-.39c.17-.15.16-.43-.03-.56-.28-.19-.64-.3-.99-.3ZM15.751 8.26c.49 0 .89.33 1.14.71-.253.081-.498.152-.74.223a23.87 23.87 0 0 0-1 .308l-.41-.37a.368.368 0 0 1 .02-.57c.28-.19.64-.3.99-.3Z"/><path fill="#fff" d="M14.741 9.26c.13-.53.6-.92 1.17-.92.58 0 1.07.42 1.19.98.02.12-.08.23-.2.23h-1.94c-.15 0-.27-.14-.22-.29ZM21.311 9.26c-.13-.53-.6-.92-1.17-.92-.59 0-1.08.42-1.19.98-.02.12.08.23.2.23h1.93c.15 0 .27-.14.23-.29Z"/><path fill="#7D4533" d="M15.311 9.34c0-.42.34-.77.77-.77s.78.35.78.77c0 .08-.01.14-.03.21h-1.49a.761.761 0 0 1-.03-.21ZM20.731 9.34a.77.77 0 0 0-.77-.77c-.43 0-.78.35-.78.77 0 .08.01.14.03.21h1.49c.02-.07.03-.14.03-.21Z"/><path fill="#000" d="M16.091 8.9a.444.444 0 0 1 .39.65h-.78a.444.444 0 0 1 .39-.65ZM19.961 8.9a.444.444 0 0 0-.39.65h.78a.444.444 0 0 0-.39-.65Z"/><path fill="#fff" d="M15.961 9.04a.14.14 0 1 1-.28 0 .14.14 0 0 1 .28 0ZM19.841 9.04a.14.14 0 1 1-.28 0 .14.14 0 0 1 .28 0Z"/><path fill="#990839" d="M18.011 11.96c-.45 0-.87-.11-1.23-.3-.12-.06-.25.08-.18.2.3.46.82.77 1.41.77s1.11-.3 1.41-.77c.07-.12-.05-.25-.18-.19-.36.18-.78.29-1.23.29Z"/><path fill="#ED9200" d="m17.676 9.151-.425 1.425c-.087.291.125.592.415.592h.629c.3 0 .503-.301.416-.592l-.426-1.425c-.087-.31-.512-.31-.609 0Z"/><path fill="#D37034" d="M20.961 7.78a.247.247 0 0 0 .33-.09c.06-.11.02-.26-.09-.32l-.022-.01c-.135-.068-.83-.416-1.628-.27a.23.23 0 0 0-.19.27c.02.13.15.21.27.19.626-.118 1.203.168 1.312.222a.178.178 0 0 0 .018.008ZM14.741 7.69c.04.08.12.12.2.12.04 0 .08 0 .12-.03 0 0 .63-.36 1.33-.23.12.03.25-.06.27-.18a.23.23 0 0 0-.19-.27c-.87-.16-1.62.26-1.65.28-.11.06-.15.21-.08.31Z"/><path fill="#FFC83D" d="M18.155 20.01c-.39 1.262-1.098 2.745-2.396 3.868-1.598 1.392-3.665 2.074-4.903 2.384a.804.804 0 0 1-.77-.21l-.538-.541a.655.655 0 0 0-.919 0 .661.661 0 0 0 0 .922l.3.3H7.67c-.34 0-.639.261-.669.602-.02.33.19.61.49.681a.66.66 0 0 0-.23.501c0 .29.19.541.45.621a.66.66 0 0 0-.02.371c.07.29.349.491.658.491h1.039c.05 0 .609 0 .849-.04.18-.03 4.533-.621 7.798-3.457 2.267-1.974 3.276-4.57 3.715-6.503h-3.595v.01Z"/><path fill="#774AA6" d="M20.244 15.62c-.975 0-1.767.77-1.767 1.73 0 .02.08 1.21-.377 2.67h3.65c.345-1.48.25-2.56.25-2.66.01-.95-.782-1.74-1.756-1.74Z"/></svg>
